svg/furkot/freepik/random.svg

<svg viewBox="0 0 512 512" xmlns="http://www.w3.org/2000/svg"><path d="m196.641 18.577h52.67v52.669h-52.67zm-60.566 73.137h32.186v32.193h-32.186zm202.209 19.905h42.105v-63.184h-105.34v105.31h63.235z"/><path d="m352.331 125.669v109.429h57.016v51.486h103.891v-160.915zm-234.981 109.429h79.291v-87.772h-196.641v196.624h117.35z"/><path d="m149.802 267.547h227.102v227.111h-227.102z"/></svg>

<svg xmlns="http://www.w3.org/2000/svg" viewBox="0 0 512 512"><path d="M196.641 18.577H249.311V71.246H196.641ZM136.075 91.714H168.261V123.907H136.075ZM338.284 111.619L380.389 111.619 380.389 48.435 275.049 48.435 275.049 153.745 338.284 153.745Z"/><path d="M352.331 125.669L352.331 235.098 409.347 235.098 409.347 286.584 513.238 286.584 513.238 125.669ZM117.35 235.098L196.641 235.098 196.641 147.326 0 147.326 0 343.95 117.35 343.95Z"/><path d="M149.802 267.547H376.904V494.658H149.802Z"/></svg>
